!!!SOCIAL_FUNCTION:	songs of dances presented at makah day celebrations
!!!PDT:	1939
!!!OTL: No_66_Nootka_Homatsa_Song.krn
!!!LANG: Non-Tone
!!!LING_GROUP: Wakashan
!!!REG: Pacific Northwest
**kern
*staff1
=1-
*clefF4
*k[b-e-a-]
*M3/4
8G\L
8G\J
8B-\L
8B-\J
16G\LK
8F\
16G\Jk
=2
16G\LL
16G\J
8G\J
8F\L
8F\J
16F\LK
8E-\
16E-\Jk
=3
16F\LL
16F\J
8F\J
8G\L
8F\J
16F\LL
[16E-\
16E-\JJ]
16r
=4
16F\LL
16F\J
8F\J
8E-\L
8E-\J
16F\LK
8F\
16G\Jk
=5
16G\LL
16G\J
8G\J
8B-\L
8B-\J
16G\LL
[16F\
16F\]
16G\JJ
=6
16G\LL
16G\J
8G\J
8F\L
8F\J
16F\LL
16E-\
16E-\JJ
16r
=7
16F\LL
16F\J
8F\J
8G\L
8F\J
16F\LL
[16E-\
16E-\JJ]
16r
=8
16F\LL
16F\J
8F\J
8G\L
8E-\J
16F\LK
8F\
16G\Jk
=9
16G\LL
16G\J
8G\J
8B-\L
8B-\J
16G\LK
8F\
16G\Jk
=10
8G\L
8G\J
8F\L
8F\J
16F\LL
16E-\
16E-\JJ
16r
=11
16F\LL
16F\J
8F\J
8G\L
8F\J
16F\LL
16E-\
16E-\JJ
16r
=12
16F\LL
16F\J
8F\J
8E-\L
8E-\J
16F\LL
16F\
16F\JJ
16r
=13||
*M2/4
4G\
8B-\L
8B-\J
=14
8G\L
8G\J
4r
=15
8.G\L
16F#\Jk
8G\L
8G\J
=16
8G\L
8F#\J
4r
=17
8E-\L
8F\J
8G\L
16G\L
16F\JJ
=18
4E-\
8E-\
8r
=19||
*M3/4
8C/L
8E-/J
16F\LL
16F\J
8F\J
8F\
8r
=20||
*M2/4
8E-\L
8F\J
8G\L
16G\L
16F\JJ
=21
4E-\
8E-\
8r
==:|!
*-
